src/images/reviews/star__outline.svg

<svg height="17" viewBox="0 0 19 17" width="19" xmlns="http://www.w3.org/2000/svg"><path d="m24.7364959 16.8192102c-.3668137.1928453-.7955299-.1186352-.7254747-.5270883l.9097483-5.3042397-3.8537557-3.75648347c-.2967585-.28926806-.1330035-.79325419.2771067-.85284669l5.3257594-.77387815 2.3817521-4.82595675c.1834068-.37162285.7133292-.37162285.896736 0l2.3817521 4.82595675 5.3257594.77387815c.4101102.0595925.5738652.56357863.2771067.85284669l-3.8537557 3.75648347.9097483 5.3042397c.0700552.4084531-.358661.7199336-.7254747.5270883l-4.7635041-2.5043223zm4.5308335-3.5117759c.145662-.0765791.3196792-.0765791.4653412 0l4.0994385 2.1552024-.7829231-4.5647919c-.0278189-.1621971.0259553-.3276972.1437983-.4425658l3.3165155-3.23280355-4.5833116-.66599417c-.1628551-.02366423-.3036379-.12594891-.3764689-.27352065l-2.0497193-4.1531849-2.0497193 4.1531849c-.072831.14757174-.2136138.24985642-.3764689.27352065l-4.5833116.66599417 3.3165155 3.23280355c.117843.1148686.1716172.2803687.1437983.4425658l-.7829231 4.5647919z" fill="#fff" transform="translate(-20)"/></svg>

<svg xmlns="http://www.w3.org/2000/svg" width="19" height="17" viewBox="0 0 19 17">
  <path fill="#FFFFFF" d="M24.7364959,16.8192102 C24.3696822,17.0120555 23.940966,16.700575 24.0110212,16.2921219 L24.9207695,10.9878822 L21.0670138,7.23139873 C20.7702553,6.94213067 20.9340103,6.43814454 21.3441205,6.37855204 L26.6698799,5.60467389 L29.051632,0.778717144 C29.2350388,0.407094285 29.7649612,0.407094285 29.948368,0.778717144 L32.3301201,5.60467389 L37.6558795,6.37855204 C38.0659897,6.43814454 38.2297447,6.94213067 37.9329862,7.23139873 L34.0792305,10.9878822 L34.9889788,16.2921219 C35.059034,16.700575 34.6303178,17.0120555 34.2635041,16.8192102 L29.5,14.3148879 L24.7364959,16.8192102 Z M29.2673294,13.3074343 C29.4129914,13.2308552 29.5870086,13.2308552 29.7326706,13.3074343 L33.8321091,15.4626367 L33.049186,10.8978448 C33.0213671,10.7356477 33.0751413,10.5701476 33.1929843,10.455279 L36.5094998,7.22247545 L31.9261882,6.55648128 C31.7633331,6.53281705 31.6225503,6.43053237 31.5497193,6.28296063 L29.5,2.12977573 L27.4502807,6.28296063 C27.3774497,6.43053237 27.2366669,6.53281705 27.0738118,6.55648128 L22.4905002,7.22247545 L25.8070157,10.455279 C25.9248587,10.5701476 25.9786329,10.7356477 25.950814,10.8978448 L25.1678909,15.4626367 L29.2673294,13.3074343 Z" transform="translate(-20)"/>
</svg>
